X: 5940
T: Cameronian, The
R: reel
M: 4/4
K: Gmajor
|c=FFd cFdF|c=FFd cBAc|BGGA BGdG|BGBd cBAB|
c=FFF cFdF|c=FFd cBAc|(3BdB GB DBGB|DGBd cBAG|
FGAg fdcA|FGAg fdcA|GBga bgaf|dfga bgaf|
cdeg fdcA|FGAg fdcA|GBga bgaf|dfga bgaf|
cdeg f2 df|e2 ce gbag|fdcB|

